packages/kaspersky-hexa-ui-icons/src/iconsSVGs/64x42/FlagLb.svg

<svg xmlns="http://www.w3.org/2000/svg" width="64" height="42" fill="none" viewBox="0 0 64 42"><g clip-path="url(#a)"><rect width="64" height="42" fill="#fff" rx="5"/><rect width="63" height="41" x="1" y="1" stroke="#f5f5f5" rx="5"/><path fill="#f03340" fill-rule="evenodd" d="M0 11.2h64V0H0zM0 42h64V30.8H0z" clip-rule="evenodd"/><path fill="#1fc065" fill-rule="evenodd" d="M29.7799 26.0201c.4529-.4529.4529-1.1872 0-1.6402l-.1611-.1611a1.046 1.046 0 0 0-.9934-.2751l-.7964.1991c-.9317.2329-1.51-.982-.7417-1.5583l.7197-.5397c.4462-.3347.2095-1.0448-.3483-1.0448-.6125 0-.8074-.8257-.2596-1.0996l1.2017-.6008c.5479-.2739.3529-1.0996-.2595-1.0996-.5578 0-.7945-.7101-.3483-1.0448L31.16 14.63a1.4 1.4 0 0 1 1.68 0l3.367 2.5252c.4462.3347.2095 1.0448-.3483 1.0448-.6125 0-.8074.8257-.2596 1.0996l1.2018.6008c.5478.2739.3529 1.0996-.2596 1.0996-.5578 0-.7945.7101-.3483 1.0448l.7197.5397c.7683.5763.19 1.7912-.7417 1.5583l-.7964-.1991a1.046 1.046 0 0 0-.9934.2751l-.1611.1611c-.4529.453-.4529 1.1873 0 1.6402.7306.7307.2132 1.9799-.8201 1.9799h-2.8c-1.0333 0-1.5507-1.2492-.8201-1.9799" clip-rule="evenodd"/></g><defs><clipPath id="a"><rect width="64" height="42" fill="#fff" rx="5"/></clipPath></defs></svg>

<svg width="64" height="42" viewBox="0 0 64 42" fill="none" xmlns="http://www.w3.org/2000/svg">
<g clip-path="url(#clip0_37941_2291)">
<rect width="64" height="42" rx="5" fill="white"/>
<rect x="0.5" y="0.5" width="63" height="41" rx="4.5" stroke="#F5F5F5"/>
<path fill-rule="evenodd" clip-rule="evenodd" d="M0 11.2H64V0H0V11.2Z" fill="#F03340"/>
<path fill-rule="evenodd" clip-rule="evenodd" d="M0 41.9999H64V30.7999H0V41.9999Z" fill="#F03340"/>
<path fill-rule="evenodd" clip-rule="evenodd" d="M29.7799 26.0201C30.2328 25.5672 30.2328 24.8329 29.7799 24.3799L29.6188 24.2188C29.359 23.959 28.9819 23.8545 28.6254 23.9437L27.829 24.1428C26.8973 24.3757 26.319 23.1608 27.0873 22.5845L27.807 22.0448C28.2532 21.7101 28.0165 21 27.4587 21C26.8462 21 26.6513 20.1743 27.1991 19.9004L28.4008 19.2996C28.9487 19.0257 28.7537 18.2 28.1413 18.2C27.5835 18.2 27.3468 17.4899 27.793 17.1552L31.16 14.63C31.6578 14.2567 32.3422 14.2567 32.84 14.63L36.207 17.1552C36.6532 17.4899 36.4165 18.2 35.8587 18.2C35.2462 18.2 35.0513 19.0257 35.5991 19.2996L36.8009 19.9004C37.3487 20.1743 37.1538 21 36.5413 21C35.9835 21 35.7468 21.7101 36.193 22.0448L36.9127 22.5845C37.681 23.1608 37.1027 24.3757 36.171 24.1428L35.3746 23.9437C35.0181 23.8545 34.641 23.959 34.3812 24.2188L34.2201 24.3799C33.7672 24.8329 33.7672 25.5672 34.2201 26.0201C34.9507 26.7508 34.4333 28 33.4 28H30.6C29.5667 28 29.0493 26.7508 29.7799 26.0201Z" fill="#1FC065"/>
</g>
<defs>
<clipPath id="clip0_37941_2291">
<rect width="64" height="42" rx="5" fill="white"/>
</clipPath>
</defs>
</svg>
